common/loginpage/providers/nextcloud/assets/listicon.svg

<svg width="36" height="36" fill="none" xmlns="http://www.w3.org/2000/svg">
  <g>
    <path d="M18.0274 9C14.2959 9 11.1332 11.5294 10.1529 14.9565C9.30098 13.1387 7.45481 11.8652 5.32833 11.8652C2.40393 11.8652 -1.4643e-08 14.2689 -1.4643e-08 17.193C-1.4643e-08 20.117 2.40393 22.5218 5.32833 22.5218C7.45481 22.5218 9.30098 21.2475 10.1529 19.4294C11.1332 22.8568 14.2959 25.387 18.0274 25.387C21.7313 25.387 24.878 22.8949 25.8833 19.5062C26.751 21.283 28.5743 22.5218 30.6706 22.5218C33.595 22.5218 36 20.117 36 17.193C36 14.2689 33.595 11.8652 30.6706 11.8652C28.5743 11.8652 26.751 13.1032 25.8833 14.8797C24.878 11.4913 21.7313 9 18.0274 9ZM18.0274 12.1275C20.8443 12.1275 23.0946 14.3764 23.0946 17.193C23.0946 20.0095 20.8443 22.2595 18.0274 22.2595C15.2106 22.2595 12.9614 20.0095 12.9614 17.193C12.9614 14.3764 15.2106 12.1275 18.0274 12.1275ZM5.32833 14.9927C6.56246 14.9927 7.52991 15.959 7.52991 17.193C7.52991 18.427 6.56246 19.3943 5.32833 19.3943C4.0942 19.3943 3.12786 18.427 3.12786 17.193C3.12786 15.959 4.0942 14.9927 5.32833 14.9927V14.9927ZM30.6706 14.9927C31.9047 14.9927 32.8721 15.959 32.8721 17.193C32.8721 18.427 31.9047 19.3943 30.6706 19.3943C29.4364 19.3943 28.4701 18.427 28.4701 17.193C28.4701 15.959 29.4364 14.9927 30.6706 14.9927V14.9927Z" fill="#0082C9"/>
  </g>
</svg>

<svg xmlns="http://www.w3.org/2000/svg" width="36" height="36" fill="none" xmlns:v="https://vecta.io/nano"><path d="M18.027 9c-3.732 0-6.894 2.529-7.874 5.957-.852-1.818-2.698-3.091-4.825-3.091C2.404 11.865 0 14.269 0 17.193s2.404 5.329 5.328 5.329c2.126 0 3.973-1.274 4.825-3.092.98 3.427 4.143 5.958 7.874 5.958 3.704 0 6.851-2.492 7.856-5.881.868 1.777 2.691 3.016 4.787 3.016 2.924 0 5.329-2.405 5.329-5.329s-2.405-5.328-5.329-5.328c-2.096 0-3.92 1.238-4.787 3.015C24.878 11.491 21.731 9 18.027 9zm0 3.127a5.04 5.04 0 0 1 5.067 5.066c0 2.816-2.25 5.066-5.067 5.066a5.04 5.04 0 0 1-5.066-5.066 5.04 5.04 0 0 1 5.066-5.066zM5.328 14.993c1.234 0 2.202.966 2.202 2.2s-.967 2.201-2.202 2.201-2.2-.967-2.2-2.201.966-2.2 2.2-2.2zm25.342 0c1.234 0 2.202.966 2.202 2.2s-.967 2.201-2.202 2.201-2.201-.967-2.201-2.201.966-2.2 2.201-2.2z" fill="#0082c9"/></svg>
